Dev_Files/assets/facebook.svg

<?xml version="1.0" encoding="UTF-8"?>
<svg width="30px" height="30px" viewBox="0 0 30 30" version="1.1" xmlns="http://www.w3.org/2000/svg" xmlns:xlink="http://www.w3.org/1999/xlink">
    <!-- Generator: sketchtool 49.2 (51160) - http://www.bohemiancoding.com/sketch -->
    <title>4F74F233-92EC-4A6D-992C-946137D2767D</title>
    <desc>Created with sketchtool.</desc>
    <defs>
        <path d="M0,26.3568284 L0,3.64317158 C0,1.63942721 1.64115913,0 3.64634505,0 L26.353655,0 C28.3594486,0 30,1.63942721 30,3.64317158 L30,26.3568284 C30,28.3605728 28.3594486,30 26.353655,30 L21.5076624,30 L21.5076624,17.6590599 L25.7292184,17.6590599 L26.6408046,12.5619592 L21.5076624,12.5619592 L21.5076624,9.94950159 C21.5076624,9.06906846 22.0500562,8.4108688 22.5344124,8.4108688 L26.6408046,8.4108688 L26.6408046,3.33016242 L22.5344124,3.33016242 C19.1375381,3.33016242 16.3742163,6.32120629 16.3742163,9.99777362 L16.3742163,12.5619592 L12.267824,12.5619592 L12.267824,17.6590599 L16.3742163,17.6590599 L16.3742163,30 L3.64634505,30 C1.64115913,30 0,28.3605728 0,26.3568284 Z" id="path-1"></path>
    </defs>
    <g id="Symbols" stroke="none" stroke-width="1" fill="none" fill-rule="evenodd">
        <g id="FOOTER-/-Desktop" transform="translate(-1235.000000, -46.000000)">
            <g id="facebook" transform="translate(1235.000000, 46.000000)">
                <mask id="mask-2" fill="white">
                    <use xlink:href="#path-1"></use>
                </mask>
                <g id="Combined-Shape">
                    <use fill="#017D44" fill-rule="evenodd" xlink:href="#path-1"></use>
                    <path stroke="#017D44" stroke-width="3" d="M14.8742163,28.5 L14.8742163,19.1590599 L10.767824,19.1590599 L10.767824,11.0619592 L14.8742163,11.0619592 L14.8742163,9.99777362 C14.8742163,5.51810121 18.2814596,1.83016242 22.5344124,1.83016242 L27.4919942,1.83016242 C27.1611818,1.62130526 26.7704962,1.5 26.353655,1.5 L3.64634505,1.5 C2.46916997,1.5 1.5,2.46827084 1.5,3.64317158 L1.5,26.3568284 C1.5,27.5317292 2.46916997,28.5 3.64634505,28.5 L14.8742163,28.5 Z M28.1408046,2.46265595 L28.1408046,9.9108688 L23.0088258,9.9108688 C23.0080673,9.92336483 23.0076624,9.93625828 23.0076624,9.94950159 L23.0076624,11.0619592 L28.4328708,11.0619592 L26.9847523,19.1590599 L23.0076624,19.1590599 L23.0076624,28.5 L26.353655,28.5 C27.5311896,28.5 28.5,27.5319772 28.5,26.3568284 L28.5,3.64317158 C28.5,3.20849082 28.3674457,2.80214938 28.1408046,2.46265595 Z"></path>
                </g>
            </g>
        </g>
    </g>
</svg>

<?xml version="1.0" encoding="utf-8"?>
<!-- Generator: Adobe Illustrator 22.0.1, SVG Export Plug-In . SVG Version: 6.00 Build 0)  -->
<svg version="1.1" id="Layer_1" xmlns="http://www.w3.org/2000/svg" xmlns:xlink="http://www.w3.org/1999/xlink" x="0px" y="0px"
	 viewBox="0 0 30 30" style="enable-background:new 0 0 30 30;" xml:space="preserve">
<style type="text/css">
	.st0{fill:#017D44;}
</style>
<path id="path-1_1_" class="st0" d="M0,26.4V3.6C0,1.6,1.6,0,3.6,0h22.7c2,0,3.6,1.6,3.6,3.6v22.7c0,2-1.6,3.6-3.6,3.6h-4.8V17.7
	h4.2l0.9-5.1h-5.1V9.9c0-0.9,0.5-1.5,1-1.5h4.1V3.3h-4.1c-3.4,0-6.2,3-6.2,6.7v2.6h-4.1v5.1h4.1V30H3.6C1.6,30,0,28.4,0,26.4z"/>
</svg>
